X: 9
T:Polska efter Larshga Jonke
S:Upptecknad efter Ante Sundin
A:Medelpad
B:Svenska Ltar Medelpad nr 196
O:Sweden
M:3/4
L:1/16
Q:1/4=120
K:A
(ef)ed (cB)cd e2fg|a2(af) b2(bg) a4|(ef)ed (cd)ef =g2ag|\
f2e^d [d2-f2-][e2e2](e4-|[ee]f)ed (cB)cd e2fg|a2(af) b2(bg) a4|\
(ef)ed (cd)ef =g2ag|f2e^d  [d2f2][e2e2] e4-|:e2a2  B2(aB) c2(ac)|\
d2(fa) (Ac)(ec)[E4B4]|[E3B3](B c2)(c2 d2)[d2f2]|c2e2 (EG)BG A4-|\
A4 B4 c2Bc|d2ed (cd)ef g2a2|(ba)gf (ef)ed (cB)cd|(EG)BG [A8A8]:|\
T:Andrastmma
(cd)cB (AE)AB c2de|c2(cA) d2(dB) c4|(cd)cB (AB)cd e2fe|
B2AB (A2[G2)B2] [(G4(B4]|cd)cB (AE)AB c2de|c2(cA) d2(dB) c4|\
(cd)cB (AB)cd e2fe|B2AB (A2[G2)B2] [G4B4]|:c2e2 E2(cE) A2(cA)|\
[F2A2][F2A2] (EA)cA [G4-B4]|G2(G2 A2)(A2 B2)B2|\
E2E2 (DE)DB, [C4-E4-]|[C4E4] [E4B4] A2GA|B2cB (AB)cd e2f2|\
(gf)ed (cd)cB (AG)AB|(DE)DB, [C8E8]:|
